X: 17553
T: Hip Agus Hop
R: mazurka
M: 3/4
K: Eminor
EE Ec2 B|BA AG ED|EE EG AB|A3 F GF|
EE Ec2 B|BA AG ED|EE EG AB|A3 G AB|
d3 B de|dB AG AB|d3 B de|d3 G Bd|
e3 d eg|ed BA GB|A3 G ED|1 E3 F GF:|2 E3 A Bd||
e3 d eg|ed BA GB|A3 G A_B|AG EG AB|
e3 d eg|ed BA GB|A3 G AB|A4 Bd|
gf ed eg|ed BA GB|A3 G A_B|AG EG DE|
GD EG AB|dG AB de|gd eg dB|1 A3 G Bd:|2 A3 F GF||

